outputs/icons/editor/align_horizontal_right_sharp.svg

<svg xmlns="http://www.w3.org/2000/svg" width="1200" height="1200" fill="none"><g clip-path="url(#a)"><path fill="#000" d="M1000 100h100v1000h-100zM100 500h800V350H100zm300 350h500V700H400z"/></g><defs><clipPath id="a"><path fill="#fff" d="M0 0h1200v1200H0z"/></clipPath></defs></svg>

<svg width="1200" height="1200" viewBox="0 0 1200 1200" fill="none" xmlns="http://www.w3.org/2000/svg"><g clip-path="url(#clip0_125_1493)"><path d="M1000 100H1100V1100H1000V100ZM100 500H900V350H100V500ZM400 850H900V700H400V850Z" fill="black"/></g><defs><clipPath id="clip0_125_1493"><path width="24" fill="white" d="M0 0H1200V1200H0V0z"/></clipPath></defs></svg>
